assets/images/figma-svgrepo-com.svg

<svg width="79" height="27" viewBox="0 0 79 27" fill="none" xmlns="http://www.w3.org/2000/svg">
<path d="M14 18C16.4853 18 18.5 15.9853 18.5 13.5C18.5 11.0147 16.4853 9 14 9C11.5147 9 9.5 11.0147 9.5 13.5C9.5 15.9853 11.5147 18 14 18Z" fill="#19BCFE"/>
<path fill-rule="evenodd" clip-rule="evenodd" d="M5 27C7.48528 27 9.5 24.9853 9.5 22.5C9.5 21.8216 9.5 20.3216 9.5 18C7.47842 18 5.97842 18 5 18C2.51472 18 0.5 20.0147 0.5 22.5C0.5 24.9853 2.51472 27 5 27Z" fill="#09CF83"/>
<path fill-rule="evenodd" clip-rule="evenodd" d="M5 18C5.82843 18 7.32843 18 9.5 18V9C7.32843 9 5.82843 9 5 9C2.51472 9 0.5 11.0147 0.5 13.5C0.5 15.9853 2.51472 18 5 18Z" fill="#A259FF"/>
<path fill-rule="evenodd" clip-rule="evenodd" d="M5 9C5.82843 9 7.32843 9 9.5 9V0C7.32843 0 5.82843 0 5 0C2.51472 0 0.5 2.01472 0.5 4.5C0.5 6.98528 2.51472 9 5 9Z" fill="#F24E1E"/>
<path fill-rule="evenodd" clip-rule="evenodd" d="M14 9H9.5V0H14C16.4853 0 18.5 2.01472 18.5 4.5C18.5 6.98528 16.4853 9 14 9Z" fill="#FF7262"/>
<path d="M24.7744 21C24.7744 21 24.7744 16.5674 24.7744 7.70215C24.7744 7.70215 27.0303 7.70215 31.542 7.70215C31.542 7.70215 31.542 8.4873 31.542 10.0576C31.542 10.0576 30.1094 10.0576 27.2441 10.0576C27.2441 10.0576 27.2441 11.1006 27.2441 13.1865C27.2441 13.1865 28.6123 13.1865 31.3486 13.1865C31.3486 13.1865 31.3486 13.9717 31.3486 15.542C31.3486 15.542 29.9805 15.542 27.2441 15.542C27.2441 15.542 27.2441 17.3613 27.2441 21C27.2441 21 26.4209 21 24.7744 21ZM33.3877 21C33.3877 21 33.3877 17.6748 33.3877 11.0244C33.3877 11.0244 34.1846 11.0244 35.7783 11.0244C35.7783 11.0244 35.7783 14.3496 35.7783 21C35.7783 21 34.9814 21 33.3877 21ZM33.3877 9.95215C33.3877 9.95215 33.3877 9.20215 33.3877 7.70215C33.3877 7.70215 34.1846 7.70215 35.7783 7.70215C35.7783 7.70215 35.7783 8.45215 35.7783 9.95215C35.7783 9.95215 34.9814 9.95215 33.3877 9.95215ZM45.4287 11.0244C45.4287 11.0244 46.1904 11.0244 47.7139 11.0244C47.7139 11.0244 47.7139 13.7197 47.7139 19.1104C47.7139 20.1006 47.626 20.9209 47.4502 21.5713C47.2803 22.2275 47.002 22.7871 46.6152 23.25C45.666 24.4043 44.3096 24.9814 42.5459 24.9814C41.3271 24.9814 40.2695 24.7031 39.373 24.1465C38.4766 23.5898 37.8262 22.8105 37.4219 21.8086H40.1377C40.4893 22.1953 40.8555 22.4678 41.2363 22.626C41.6172 22.79 42.0859 22.8721 42.6426 22.8721C43.5332 22.8721 44.21 22.6084 44.6729 22.0811C45.1357 21.5537 45.3877 20.7539 45.4287 19.6816C44.96 20.2324 44.4707 20.6309 43.9609 20.877C43.457 21.1172 42.8535 21.2373 42.1504 21.2373C41.2129 21.2373 40.3691 21.0117 39.6191 20.5605C38.875 20.1094 38.2949 19.4824 37.8789 18.6797C37.4629 17.8711 37.2549 16.96 37.2549 15.9463C37.2549 14.4697 37.7207 13.2422 38.6523 12.2637C39.584 11.2852 40.7559 10.7959 42.168 10.7959C43.5977 10.7959 44.6846 11.2939 45.4287 12.29V11.0244ZM42.4053 12.9932C41.585 12.9932 40.9229 13.2744 40.4189 13.8369C39.9209 14.3936 39.6719 15.1318 39.6719 16.0518C39.6719 16.96 39.9238 17.6865 40.4277 18.2314C40.9375 18.7705 41.6201 19.04 42.4756 19.04C43.3428 19.04 44.0342 18.7676 44.5498 18.2227C45.0654 17.6719 45.3232 16.9365 45.3232 16.0166C45.3232 15.1143 45.0537 14.3848 44.5146 13.8281C43.9814 13.2715 43.2783 12.9932 42.4053 12.9932ZM49.665 21C49.665 21 49.665 17.6748 49.665 11.0244C49.665 11.0244 50.3945 11.0244 51.8535 11.0244C51.8535 11.0244 51.8535 11.3379 51.8535 11.9648C52.2051 11.543 52.5771 11.2441 52.9697 11.0684C53.3682 10.8867 53.8604 10.7959 54.4463 10.7959C55.1436 10.7959 55.7207 10.916 56.1777 11.1562C56.6406 11.3965 57.042 11.792 57.3818 12.3428C57.7861 11.8037 58.2432 11.4111 58.7529 11.165C59.2627 10.9189 59.8691 10.7959 60.5723 10.7959C61.3574 10.7959 62.0488 10.9424 62.6465 11.2354C63.25 11.5225 63.71 11.9326 64.0264 12.4658C64.4189 13.1572 64.6152 14.083 64.6152 15.2432V21H62.2246V15.5244C62.2246 15.0146 62.1865 14.6074 62.1104 14.3027C62.0342 13.998 61.9111 13.752 61.7412 13.5645C61.4131 13.1836 60.9502 12.9932 60.3525 12.9932C59.5498 12.9932 58.9814 13.3271 58.6475 13.9951C58.4424 14.4111 58.3398 15.1084 58.3398 16.0869V21H55.9404C55.9404 21 55.9404 19.1748 55.9404 15.5244C55.9404 14.5986 55.791 13.9512 55.4922 13.582C55.1523 13.1895 54.6602 12.9932 54.0156 12.9932C53.166 12.9932 52.5918 13.3535 52.293 14.0742C52.1348 14.4668 52.0557 15.1377 52.0557 16.0869C52.0557 16.0869 52.0557 17.7246 52.0557 21C52.0557 21 51.2588 21 49.665 21ZM76.5771 11.0244C76.5771 11.0244 76.5771 14.3496 76.5771 21C76.5771 21 75.8477 21 74.3887 21C74.3887 21 74.3887 20.5693 74.3887 19.708C73.9082 20.2529 73.4102 20.6455 72.8945 20.8857C72.3848 21.1201 71.7783 21.2373 71.0752 21.2373C70.1143 21.2373 69.25 21.0176 68.4824 20.5781C67.7207 20.1328 67.123 19.5146 66.6895 18.7236C66.2617 17.9326 66.0479 17.042 66.0479 16.0518C66.0479 15.0498 66.2646 14.1504 66.6982 13.3535C67.1318 12.5508 67.7354 11.9238 68.5088 11.4727C69.2822 11.0215 70.1553 10.7959 71.1279 10.7959C71.8486 10.7959 72.4697 10.9219 72.9912 11.1738C73.5127 11.4199 73.9785 11.8154 74.3887 12.3604V11.0244H76.5771ZM71.3389 12.9932C70.5068 12.9932 69.8184 13.2861 69.2734 13.8721C68.7344 14.458 68.4648 15.2021 68.4648 16.1045C68.4648 16.9775 68.7373 17.6865 69.2822 18.2314C69.833 18.7705 70.5449 19.04 71.418 19.04C72.2852 19.04 72.9824 18.7646 73.5098 18.2139C74.043 17.6631 74.3096 16.9424 74.3096 16.0518C74.3096 15.1494 74.0312 14.4141 73.4746 13.8457C72.9238 13.2773 72.2119 12.9932 71.3389 12.9932Z" fill="#111111"/>
</svg>

<svg width="79" height="27" fill="none" xmlns="http://www.w3.org/2000/svg"><path d="M14 18a4.5 4.5 0 1 0 0-9 4.5 4.5 0 0 0 0 9Z" fill="#19BCFE"/><path fill-rule="evenodd" clip-rule="evenodd" d="M5 27a4.5 4.5 0 0 0 4.5-4.5V18H5a4.5 4.5 0 1 0 0 9Z" fill="#09CF83"/><path fill-rule="evenodd" clip-rule="evenodd" d="M5 18h4.5V9H5a4.5 4.5 0 1 0 0 9Z" fill="#A259FF"/><path fill-rule="evenodd" clip-rule="evenodd" d="M5 9h4.5V0H5a4.5 4.5 0 0 0 0 9Z" fill="#F24E1E"/><path fill-rule="evenodd" clip-rule="evenodd" d="M14 9H9.5V0H14a4.5 4.5 0 1 1 0 9Z" fill="#FF7262"/><path d="M24.774 21V7.702h6.768v2.356h-4.298v3.129h4.105v2.355h-4.105V21h-2.47Zm8.614 0v-9.976h2.39V21h-2.39Zm0-11.048v-2.25h2.39v2.25h-2.39Zm12.04 1.072h2.286v8.086c0 .99-.088 1.81-.264 2.461-.17.656-.448 1.216-.835 1.679-.949 1.154-2.305 1.731-4.07 1.731-1.218 0-2.276-.278-3.172-.835a4.786 4.786 0 0 1-1.951-2.337h2.716c.351.386.718.659 1.098.817.381.164.85.246 1.407.246.89 0 1.567-.264 2.03-.79.463-.528.715-1.328.756-2.4-.469.55-.958.949-1.468 1.195-.504.24-1.108.36-1.81.36-.938 0-1.782-.225-2.532-.676a4.653 4.653 0 0 1-1.74-1.881c-.416-.809-.624-1.72-.624-2.734 0-1.476.466-2.704 1.397-3.682.932-.979 2.104-1.468 3.516-1.468 1.43 0 2.517.498 3.26 1.494v-1.266Zm-3.023 1.97c-.82 0-1.482.28-1.986.843-.498.557-.747 1.295-.747 2.215 0 .908.252 1.634.756 2.18.51.538 1.192.808 2.048.808.867 0 1.558-.272 2.074-.817.515-.551.773-1.287.773-2.206 0-.903-.27-1.632-.808-2.189-.534-.556-1.237-.835-2.11-.835ZM49.665 21v-9.976h2.188v.94c.352-.421.724-.72 1.117-.896.398-.181.89-.272 1.476-.272.698 0 1.275.12 1.732.36.463.24.864.636 1.204 1.187.404-.54.861-.932 1.37-1.178.51-.246 1.117-.37 1.82-.37.785 0 1.477.147 2.075.44.603.288 1.063.698 1.38 1.23.392.692.588 1.618.588 2.778V21h-2.39v-5.476c0-.51-.038-.917-.115-1.221-.076-.305-.199-.551-.369-.739-.328-.38-.79-.57-1.389-.57-.802 0-1.37.333-1.704 1.001-.206.416-.308 1.113-.308 2.092V21h-2.4v-5.476c0-.925-.149-1.573-.448-1.942-.34-.393-.832-.589-1.476-.589-.85 0-1.424.36-1.723 1.081-.158.393-.237 1.064-.237 2.013V21h-2.391Zm26.912-9.976V21H74.39v-1.292c-.48.545-.979.938-1.495 1.178-.51.234-1.116.351-1.819.351-.96 0-1.825-.22-2.593-.659a4.746 4.746 0 0 1-1.793-1.854c-.427-.791-.641-1.682-.641-2.672 0-1.002.217-1.902.65-2.698a4.74 4.74 0 0 1 1.81-1.881c.774-.452 1.647-.677 2.62-.677.72 0 1.342.126 1.863.378.522.246.987.641 1.398 1.186v-1.336h2.188Zm-5.238 1.97c-.832 0-1.52.292-2.066.878-.539.586-.808 1.33-.808 2.233 0 .872.272 1.581.817 2.126.551.54 1.263.809 2.136.809.867 0 1.564-.275 2.092-.826.533-.55.8-1.272.8-2.162 0-.903-.279-1.638-.835-2.206-.551-.569-1.263-.853-2.136-.853Z" fill="#111"/></svg>
